X: 5828
T: Callaghan's
R: reel
M: 4/4
K: Dmajor
dB|:AFFE FEDE|F3E F2 dB|AFFE FEDE|FABA FE E2|
AFFE FEDE|F3E F2 dB|AFFE FEDE|1 FAEG FD D2:|2 FAEG FD (3EFG||
|:A3B AF3|ABde fee2|fedc BcdB|ABde fedB|
AFAB AF3|ABde fee2|fedc BcdB|ABde fedB:|

